X: 1500
T: The Grand Chain (Lancers)
B: australian traditional tunes wiki
M:4/4
L:1/8
R: March
Q: 1/4=100
K:Em
V:1 
d|:"G"gfga b2d2 |gfga b2b2 |"D7"a3b agfe |d2c2 "G"B2d2 |gfga b2d2 |gfga b2b2 |"D7"a3b agfe |1d2g2"G"g2z2:|2"G"d2g2g2dg||
|:"D"fgag f4|fgag f2fg|"Em"a2f2 eded|edeg "D"f4|fgag f2z2|fgag f2f2|"Em"eded "D"d2d2|1"D"d4z2f<g:|2"D"d4"A7"e4||
|:"A7"edef edef|e2e2"D"f4|fefg fefg|f2f2f4|fgagf4|fgag f2f2|"A7"e3zedef |1"D"d4 "A7"e4:|2"D"d2d2 d2zd||
|:"G"gfga b2d2 |gfga b2b2 |"D"a3b agfe |"G"d2c2 B2d2 |gfga b2d2 |gfga b2b2 |"D"a3b agfe |1"G"d2g2g2z2:|2"G"d2g2g4||
% abcbook-tune_id 6342d53a76251313c3ff705c


% abcbook-boost 0
% abcbook-tablature 
% abcbook-transpose 
% abcbook-lastupdated 1665324368054
% abcbook-soundfonts 
% abcbook-repeats 1
% NFF Book 2009

